static/img/kroki/5adfe1d4a1781e63abdaa05a6a14a5dc.svg

<?xml version="1.0" encoding="us-ascii" standalone="no"?><svg xmlns="http://www.w3.org/2000/svg" xmlns:xlink="http://www.w3.org/1999/xlink" contentStyleType="text/css" height="252px" preserveAspectRatio="none" style="width:245px;height:252px;" version="1.1" viewBox="0 0 245 252" width="245px" zoomAndPan="magnify"><defs/><g><!--class slack_region--><g id="elem_slack_region"><rect codeLine="22" fill="#3D176E" height="39.7891" id="slack_region" rx="2.5" ry="2.5" style="stroke:#000D19;stroke-width:0.5;" width="145" x="7" y="7"/><ellipse cx="22" cy="26.8945" fill="#ADD1B2" rx="11" ry="11" style="stroke:#181818;stroke-width:1.0;"/><path d="M24.9688,32.5352 Q24.3906,32.832 23.75,32.9727 Q23.1094,33.1289 22.4063,33.1289 Q19.9063,33.1289 18.5781,31.4883 Q17.2656,29.832 17.2656,26.707 Q17.2656,23.582 18.5781,21.9258 Q19.9063,20.2695 22.4063,20.2695 Q23.1094,20.2695 23.75,20.4258 Q24.4063,20.582 24.9688,20.8789 L24.9688,23.5977 Q24.3438,23.0195 23.75,22.7539 Q23.1563,22.4727 22.5313,22.4727 Q21.1875,22.4727 20.5,23.5508 Q19.8125,24.6133 19.8125,26.707 Q19.8125,28.8008 20.5,29.8789 Q21.1875,30.9414 22.5313,30.9414 Q23.1563,30.9414 23.75,30.6758 Q24.3438,30.3945 24.9688,29.8164 L24.9688,32.5352 Z " fill="#000000"/><text fill="#D9B8FF" font-family="Helvetica" font-size="17" lengthAdjust="spacing" textLength="103" x="41" y="32.7798">slack_region</text></g><!--class slack_user--><g id="elem_slack_user"><rect codeLine="24" fill="#3D176E" height="39.7891" id="slack_user" rx="2.5" ry="2.5" style="stroke:#000D19;stroke-width:0.5;" width="128" x="15.5" y="206.58"/><ellipse cx="30.5" cy="226.4745" fill="#ADD1B2" rx="11" ry="11" style="stroke:#181818;stroke-width:1.0;"/><path d="M33.4688,232.1152 Q32.8906,232.412 32.25,232.5527 Q31.6094,232.7089 30.9063,232.7089 Q28.4063,232.7089 27.0781,231.0683 Q25.7656,229.412 25.7656,226.287 Q25.7656,223.162 27.0781,221.5058 Q28.4063,219.8495 30.9063,219.8495 Q31.6094,219.8495 32.25,220.0058 Q32.9063,220.162 33.4688,220.4589 L33.4688,223.1777 Q32.8438,222.5995 32.25,222.3339 Q31.6563,222.0527 31.0313,222.0527 Q29.6875,222.0527 29,223.1308 Q28.3125,224.1933 28.3125,226.287 Q28.3125,228.3808 29,229.4589 Q29.6875,230.5214 31.0313,230.5214 Q31.6563,230.5214 32.25,230.2558 Q32.8438,229.9745 33.4688,229.3964 L33.4688,232.1152 Z " fill="#000000"/><text fill="#D9B8FF" font-family="Helvetica" font-size="17" lengthAdjust="spacing" textLength="86" x="49.5" y="232.3598">slack_user</text></g><!--class slack_usergroup--><g id="elem_slack_usergroup"><rect codeLine="26" fill="#3D176E" height="39.7891" id="slack_usergroup" rx="2.5" ry="2.5" style="stroke:#000D19;stroke-width:0.5;" width="176" x="62.5" y="106.79"/><ellipse cx="77.5" cy="126.6845" fill="#ADD1B2" rx="11" ry="11" style="stroke:#181818;stroke-width:1.0;"/><path d="M80.4688,132.3252 Q79.8906,132.622 79.25,132.7627 Q78.6094,132.9189 77.9063,132.9189 Q75.4063,132.9189 74.0781,131.2783 Q72.7656,129.622 72.7656,126.497 Q72.7656,123.372 74.0781,121.7158 Q75.4063,120.0595 77.9063,120.0595 Q78.6094,120.0595 79.25,120.2158 Q79.9063,120.372 80.4688,120.6689 L80.4688,123.3877 Q79.8438,122.8095 79.25,122.5439 Q78.6563,122.2627 78.0313,122.2627 Q76.6875,122.2627 76,123.3408 Q75.3125,124.4033 75.3125,126.497 Q75.3125,128.5908 76,129.6689 Q76.6875,130.7314 78.0313,130.7314 Q78.6563,130.7314 79.25,130.4658 Q79.8438,130.1845 80.4688,129.6064 L80.4688,132.3252 Z " fill="#000000"/><text fill="#D9B8FF" font-family="Helvetica" font-size="17" lengthAdjust="spacing" textLength="134" x="96.5" y="132.5698">slack_usergroup</text></g><!--link slack_region to slack_user--><g id="link_slack_region_slack_user"><path codeLine="28" d="M68.5,47.27 C60.34,62.8 49.9,85.47 45.5,106.79 C41.93,124.11 41.93,129.26 45.5,146.58 C49.9,167.91 57.5506,185.2578 65.7106,200.7978 " fill="none" id="slack_region-to-slack_user" style="stroke:#1A83AF;stroke-width:2.0;"/><polygon fill="#1A83AF" points="68.5,206.11,67.8573,196.2821,66.1755,201.6832,60.7744,200.0013,68.5,206.11" style="stroke:#1A83AF;stroke-width:2.0;"/></g><!--link slack_region to slack_usergroup--><g id="link_slack_region_slack_usergroup"><path codeLine="29" d="M93.53,47.22 C105.97,64.36 120.5357,84.4142 132.9757,101.5542 " fill="none" id="slack_region-to-slack_usergroup" style="stroke:#1A83AF;stroke-width:2.0;"/><polygon fill="#1A83AF" points="136.5,106.41,134.4508,96.7767,133.5631,102.3635,127.9763,101.4758,136.5,106.41" style="stroke:#1A83AF;stroke-width:2.0;"/></g><!--link slack_usergroup to slack_user--><g id="link_slack_usergroup_slack_user"><path codeLine="30" d="M136.47,147.01 C124.03,164.15 109.4643,184.2042 97.0243,201.3442 " fill="none" id="slack_usergroup-to-slack_user" style="stroke:#1A83AF;stroke-width:2.0;"/><polygon fill="#1A83AF" points="93.5,206.2,102.0237,201.2658,96.4369,202.1535,95.5492,196.5667,93.5,206.2" style="stroke:#1A83AF;stroke-width:2.0;"/></g><!--SRC=[ZP11JuGm58Jl-okQSDu490fSJ91aevUDSRqPOmfzXGPeoMjninh_ky2gAR3iUftvEZElXM10e6xCWTHGfu1wfKiX6ugq9Z6YsYUgKaWSpYdtWwcvKT9S1BQq1d8FrJiOaT4fyLo8h9IWDRcoh3kQbJcgLh9Zl44gTMU1D1QLL5Jhs1WKQMl06iEYDEHyIav37PzvmGtCC8KCy0TnNPTvqHIvM7NsxZzY9pw0UFQdRPM1sSnPnK2TNTaJriZPeR_-uiP7ofYGERcsjAVZ9fI08trNKARsFSrffUqQRG11cKC3oUmgY4B6WvFmmnASzJz7TDNPRmYvK99yhhv6SgkxTQV4FgyPdD7xzOlZnQ4VRrxNjnRzBsY8N4qh5k1l]--></g></svg>

<svg xmlns="http://www.w3.org/2000/svg" width="245" height="252" viewBox="0 0 245 252"><rect width="145" height="39.789" x="7" y="7" fill="#3D176E" rx="2.5" ry="2.5" style="stroke:#000d19;stroke-width:.5"/><circle cx="22" cy="26.895" r="11" fill="#ADD1B2" style="stroke:#181818;stroke-width:1"/><path d="M24.969 32.535q-.578.297-1.219.438-.64.156-1.344.156-2.5 0-3.828-1.64-1.312-1.657-1.312-4.782t1.312-4.781q1.328-1.656 3.828-1.656.703 0 1.344.156.656.156 1.219.453v2.719q-.625-.578-1.219-.844-.594-.281-1.219-.281-1.343 0-2.031 1.078-.687 1.062-.687 3.156t.687 3.172q.688 1.062 2.031 1.062.625 0 1.219-.265.594-.281 1.219-.86z"/><text x="41" y="32.78" fill="#D9B8FF" font-family="Helvetica" font-size="17" textLength="103">slack_region</text><rect width="128" height="39.789" x="15.5" y="206.58" fill="#3D176E" rx="2.5" ry="2.5" style="stroke:#000d19;stroke-width:.5"/><circle cx="30.5" cy="226.475" r="11" fill="#ADD1B2" style="stroke:#181818;stroke-width:1"/><path d="M33.469 232.115q-.578.297-1.219.438-.64.156-1.344.156-2.5 0-3.828-1.64-1.312-1.657-1.312-4.782t1.312-4.781q1.328-1.656 3.828-1.656.703 0 1.344.156.656.156 1.219.453v2.719q-.625-.578-1.219-.844-.594-.281-1.219-.281-1.343 0-2.031 1.078-.687 1.062-.687 3.156t.687 3.172q.688 1.062 2.031 1.062.625 0 1.219-.265.594-.281 1.219-.86z"/><text x="49.5" y="232.36" fill="#D9B8FF" font-family="Helvetica" font-size="17" textLength="86">slack_user</text><rect width="176" height="39.789" x="62.5" y="106.79" fill="#3D176E" rx="2.5" ry="2.5" style="stroke:#000d19;stroke-width:.5"/><circle cx="77.5" cy="126.684" r="11" fill="#ADD1B2" style="stroke:#181818;stroke-width:1"/><path d="M80.469 132.325q-.578.297-1.219.438-.64.156-1.344.156-2.5 0-3.828-1.64-1.312-1.657-1.312-4.782t1.312-4.781q1.328-1.656 3.828-1.656.703 0 1.344.156.656.156 1.219.453v2.719q-.625-.579-1.219-.844-.594-.281-1.219-.281-1.344 0-2.031 1.078-.687 1.062-.687 3.156t.687 3.172q.688 1.062 2.031 1.062.625 0 1.219-.265.594-.281 1.219-.86z"/><text x="96.5" y="132.57" fill="#D9B8FF" font-family="Helvetica" font-size="17" textLength="134">slack_usergroup</text><path fill="none" d="M68.5 47.27c-8.16 15.53-18.6 38.2-23 59.52-3.57 17.32-3.57 22.47 0 39.79 4.4 21.33 12.05 38.678 20.21 54.218" style="stroke:#1a83af;stroke-width:2"/><path fill="#1A83AF" d="m68.5 206.11-.643-9.828-1.681 5.401-5.402-1.682z" style="stroke:#1a83af;stroke-width:2"/><path fill="none" d="M93.53 47.22c12.44 17.14 27.006 37.194 39.446 54.334" style="stroke:#1a83af;stroke-width:2"/><path fill="#1A83AF" d="m136.5 106.41-2.05-9.633-.887 5.587-5.587-.888z" style="stroke:#1a83af;stroke-width:2"/><path fill="none" d="M136.47 147.01c-12.44 17.14-27.006 37.194-39.446 54.334" style="stroke:#1a83af;stroke-width:2"/><path fill="#1A83AF" d="m93.5 206.2 8.524-4.934-5.587.888-.888-5.587z" style="stroke:#1a83af;stroke-width:2"/></svg>
